images/ic_token_ibtc.svg

<svg height="250" viewBox="0 0 250 250" width="250" xmlns="http://www.w3.org/2000/svg" xmlns:xlink="http://www.w3.org/1999/xlink"><linearGradient id="a" gradientTransform="matrix(.976562 0 0 -.976562 0 251.249999)" gradientUnits="userSpaceOnUse" x1="239.360001" x2="34.560001" y1="17.92" y2="222.720001"><stop offset=".1594" stop-color="#003cda"/><stop offset="1" stop-color="#33dfcc"/></linearGradient><clipPath id="b"><path d="m46.875 46.875h156.25v156.25h-156.25zm0 0"/></clipPath><path d="m125 48.242188c15.234375 0 30.078125 4.492187 42.675781 12.988281 12.597657 8.398437 22.460938 20.410156 28.320313 34.472656s7.324218 29.492187 4.394531 44.335937c-2.929687 14.941407-10.253906 28.613282-20.996094 39.355469-10.742187 10.742188-24.414062 18.066407-39.355469 20.996094-14.941406 2.929687-30.371093 1.464844-44.335937-4.394531-14.0625-5.859375-26.074219-15.625-34.472656-28.320313-8.496094-12.597656-12.988281-27.441406-12.988281-42.675781 0-20.3125 8.105468-39.84375 22.558593-54.296875 14.355469-14.355469 33.886719-22.460937 54.199219-22.460937zm0-48.242188c-24.707031 0-48.925781 7.324219-69.433594 21.09375-20.605468 13.671875-36.621094 33.203125-46.09375 56.054688-9.472656 22.851562-11.914062 47.949218-7.128906 72.265624 4.785156 24.21875 16.699219 46.484376 34.179688 63.964844 17.480468 17.480469 39.746093 29.394532 63.964843 34.179688s49.414063 2.34375 72.265625-7.128906c22.851563-9.472657 42.382813-25.488282 56.054688-45.996094 13.769531-20.605469 21.09375-44.726563 21.09375-69.433594 0-33.105469-13.183594-64.941406-36.621094-88.378906-23.339844-23.4375-55.175781-36.621094-88.28125-36.621094zm0 0" fill="url(#a)"/><path d="m125 222.65625c53.90625 0 97.65625-43.75 97.65625-97.65625s-43.75-97.65625-97.65625-97.65625-97.65625 43.75-97.65625 97.65625 43.75 97.65625 97.65625 97.65625zm0 0" fill="#fff"/><g clip-path="url(#b)"><path d="m200.78125 143.945312c-10.449219 41.894532-52.832031 67.285157-94.726562 56.933594-41.796876-10.449218-67.285157-52.832031-56.835938-94.726562 10.449219-41.894532 52.832031-67.285156 94.628906-56.933594 41.894532 10.449219 67.382813 52.832031 56.933594 94.726562zm0 0" fill="#f7931a"/></g><path d="m159.472656 113.867188c1.5625-10.351563-6.347656-16.015626-17.1875-19.726563l3.515625-14.0625-8.59375-2.148437-3.417969 13.671874c-2.246093-.585937-4.589843-1.074218-6.835937-1.660156l3.417969-13.769531-8.59375-2.148437-3.515625 14.0625c-1.855469-.390626-3.710938-.878907-5.46875-1.269532l-11.816407-2.929687-2.246093 9.179687s6.347656 1.464844 6.25 1.5625c3.515625.878906 4.101562 3.125 4.003906 4.980469l-4.003906 16.015625c.195312.097656.585937.195312.878906.292969-.292969-.097657-.585937-.195313-.878906-.195313l-5.566407 22.460938c-.390624 1.074218-1.464843 2.636718-3.90625 2.050781.097657.097656-6.25-1.5625-6.25-1.5625l-4.296874 9.765625 11.132812 2.734375c2.050781.488281 4.101562 1.074219 6.152344 1.5625l-3.515625 14.257813 8.59375 2.148437 3.515625-14.0625c2.34375.585937 4.589844 1.171875 6.835937 1.757813l-3.515625 14.0625 8.59375 2.148437 3.515625-14.257813c14.648438 2.734376 25.585938 1.660157 30.273438-11.523437 3.710937-10.644531-.195313-16.796875-7.910157-20.800781 5.46875-1.269532 9.667969-4.980469 10.839844-12.597656zm-19.628906 27.441406c-2.636719 10.644531-20.605469 4.882812-26.367188 3.417968l4.6875-18.847656c5.859376 1.464844 24.511719 4.394532 21.679688 15.429688zm2.636719-27.636719c-2.441407 9.667969-17.382813 4.785156-22.167969 3.515625l4.296875-17.089844c4.882813 1.269532 20.410156 3.515625 17.871094 13.574219zm0 0" fill="#fff"/></svg>

<svg xmlns="http://www.w3.org/2000/svg" xmlns:xlink="http://www.w3.org/1999/xlink" width="250px" height="250px" viewBox="0 0 250 250" version="1.1">
<defs>
<linearGradient id="linear0" gradientUnits="userSpaceOnUse" x1="239.360001" y1="17.92" x2="34.560001" y2="222.720001" gradientTransform="matrix(0.976562,0,0,-0.976562,0,251.249999)">
<stop offset="0.1594" style="stop-color:rgb(0%,23.529412%,85.490197%);stop-opacity:1;"/>
<stop offset="1" style="stop-color:rgb(20%,87.450981%,80.000001%);stop-opacity:1;"/>
</linearGradient>
<clipPath id="clip1">
  <path d="M 46.875 46.875 L 203.125 46.875 L 203.125 203.125 L 46.875 203.125 Z M 46.875 46.875 "/>
</clipPath>
</defs>
<g id="surface1">
<path style=" stroke:none;fill-rule:nonzero;fill:url(#linear0);" d="M 125 48.242188 C 140.234375 48.242188 155.078125 52.734375 167.675781 61.230469 C 180.273438 69.628906 190.136719 81.640625 195.996094 95.703125 C 201.855469 109.765625 203.320312 125.195312 200.390625 140.039062 C 197.460938 154.980469 190.136719 168.652344 179.394531 179.394531 C 168.652344 190.136719 154.980469 197.460938 140.039062 200.390625 C 125.097656 203.320312 109.667969 201.855469 95.703125 195.996094 C 81.640625 190.136719 69.628906 180.371094 61.230469 167.675781 C 52.734375 155.078125 48.242188 140.234375 48.242188 125 C 48.242188 104.6875 56.347656 85.15625 70.800781 70.703125 C 85.15625 56.347656 104.6875 48.242188 125 48.242188 Z M 125 0 C 100.292969 0 76.074219 7.324219 55.566406 21.09375 C 34.960938 34.765625 18.945312 54.296875 9.472656 77.148438 C 0 100 -2.441406 125.097656 2.34375 149.414062 C 7.128906 173.632812 19.042969 195.898438 36.523438 213.378906 C 54.003906 230.859375 76.269531 242.773438 100.488281 247.558594 C 124.707031 252.34375 149.902344 249.902344 172.753906 240.429688 C 195.605469 230.957031 215.136719 214.941406 228.808594 194.433594 C 242.578125 173.828125 249.902344 149.707031 249.902344 125 C 249.902344 91.894531 236.71875 60.058594 213.28125 36.621094 C 189.941406 13.183594 158.105469 0 125 0 Z M 125 0 "/>
<path style=" stroke:none;fill-rule:nonzero;fill:rgb(100%,100%,100%);fill-opacity:1;" d="M 125 222.65625 C 178.90625 222.65625 222.65625 178.90625 222.65625 125 C 222.65625 71.09375 178.90625 27.34375 125 27.34375 C 71.09375 27.34375 27.34375 71.09375 27.34375 125 C 27.34375 178.90625 71.09375 222.65625 125 222.65625 Z M 125 222.65625 "/>
<g clip-path="url(#clip1)" clip-rule="nonzero">
<path style=" stroke:none;fill-rule:nonzero;fill:rgb(96.862745%,57.647061%,10.196079%);fill-opacity:1;" d="M 200.78125 143.945312 C 190.332031 185.839844 147.949219 211.230469 106.054688 200.878906 C 64.257812 190.429688 38.769531 148.046875 49.21875 106.152344 C 59.667969 64.257812 102.050781 38.867188 143.847656 49.21875 C 185.742188 59.667969 211.230469 102.050781 200.78125 143.945312 Z M 200.78125 143.945312 "/>
</g>
<path style=" stroke:none;fill-rule:nonzero;fill:rgb(100%,100%,100%);fill-opacity:1;" d="M 159.472656 113.867188 C 161.035156 103.515625 153.125 97.851562 142.285156 94.140625 L 145.800781 80.078125 L 137.207031 77.929688 L 133.789062 91.601562 C 131.542969 91.015625 129.199219 90.527344 126.953125 89.941406 L 130.371094 76.171875 L 121.777344 74.023438 L 118.261719 88.085938 C 116.40625 87.695312 114.550781 87.207031 112.792969 86.816406 L 100.976562 83.886719 L 98.730469 93.066406 C 98.730469 93.066406 105.078125 94.53125 104.980469 94.628906 C 108.496094 95.507812 109.082031 97.753906 108.984375 99.609375 L 104.980469 115.625 C 105.175781 115.722656 105.566406 115.820312 105.859375 115.917969 C 105.566406 115.820312 105.273438 115.722656 104.980469 115.722656 L 99.414062 138.183594 C 99.023438 139.257812 97.949219 140.820312 95.507812 140.234375 C 95.605469 140.332031 89.257812 138.671875 89.257812 138.671875 L 84.960938 148.4375 L 96.09375 151.171875 C 98.144531 151.660156 100.195312 152.246094 102.246094 152.734375 L 98.730469 166.992188 L 107.324219 169.140625 L 110.839844 155.078125 C 113.183594 155.664062 115.429688 156.25 117.675781 156.835938 L 114.160156 170.898438 L 122.753906 173.046875 L 126.269531 158.789062 C 140.917969 161.523438 151.855469 160.449219 156.542969 147.265625 C 160.253906 136.621094 156.347656 130.46875 148.632812 126.464844 C 154.101562 125.195312 158.300781 121.484375 159.472656 113.867188 Z M 139.84375 141.308594 C 137.207031 151.953125 119.238281 146.191406 113.476562 144.726562 L 118.164062 125.878906 C 124.023438 127.34375 142.675781 130.273438 139.84375 141.308594 Z M 142.480469 113.671875 C 140.039062 123.339844 125.097656 118.457031 120.3125 117.1875 L 124.609375 100.097656 C 129.492188 101.367188 145.019531 103.613281 142.480469 113.671875 Z M 142.480469 113.671875 "/>
</g>
</svg>
